X:1
T:Title
L:1/8
Q:1/4=90
M:6/8
K:Bb
V:1 treble nm="Church Organ, Staff"
V:1
 G2 G GFB, | B6 | G2 G GFB, | B3 BBc | d>dd c2 c/c/ | BB/Bd/- d z/ d/d/d/- | d/cBf/- f z/ c/c/B/- | %7
w: By~T.~T.~Noble * * * *|||||||
 B/BcB/- B z/ B/B/e/- | ee/ed/- d z/ d/d/c/- | cc/cB/- B z/ B/B/e/- | ee/ed/- d z/ d/d/c/- | %11
w: ||||
 cc/cB/- B z/ B/B/c/- | cc/cB/- B z/ B/B/_A/- | A_A/AG/- G z/ =AB/- | B3/2Bc/- c z/ de/- | %15
w: ||||
 e3/2ef/- f z/ B_d/- | d3/2_dc/- cB/_AB/- | B2 z/ B/- B2 z |] %18
w: |||

